X: 1
T: Moldavskaya Hora    [G]
D: Konsonans Retro "a Podolian Affair"
Z: 2011 John Chambers <jc:trillian.mit.edu>
P: Play AABBAACC for contras
M: 2/4
L: 1/16
K: G
"A"[|] "D7"z2 |\
"G"D^CD2 B^AB2 | D^CD2 B^ABc | "D7"dccB BAAG | "G"GABc d^cd2 || "G"D^CD2 B^AB2 |
D^DEF GABc | "D7"dBcA BGAF | "G"G4 z2 "B":: "E7"z2 | "Am"AGFG A4 | AGFG A4 | "B7"BAAG GAFG |
"Em"EFGA B4 | "Am"AGFG A4 | AGFG A4 | "B7"BAAG GAFG | "Em"E4 z2 "C":: B,2 | "Em"E2z2 z2B,2 | E2F2 G2A2 |
"Gm"A_BBA "D7"AGGF | "Gm"G6 z2 || "Gm"A_BBA "(D)"AGGF | "Am"G2 A4 G2 | "B7"BAGF GAFG | "Em"E4 z2 :|

%%sep 1 1 500
%%sep 1 1 500

